images/content/johnson-solids/triangular-cupola.svg

<?xml version="1.0" encoding="UTF-8"?>
<svg xmlns="http://www.w3.org/2000/svg" xmlns:xlink="http://www.w3.org/1999/xlink" width="291.44pt" height="185.08pt" viewBox="0 0 291.44 185.08" version="1.2">
<defs>
<clipPath id="clip1">
  <path d="M 0.441406 83 L 233 83 L 233 184 L 0.441406 184 Z M 0.441406 83 "/>
</clipPath>
<clipPath id="clip2">
  <path d="M 0.441406 83 L 85 83 L 85 126 L 0.441406 126 Z M 0.441406 83 "/>
</clipPath>
<clipPath id="clip3">
  <path d="M 207 83 L 290.441406 83 L 290.441406 184 L 207 184 Z M 207 83 "/>
</clipPath>
<clipPath id="clip4">
  <path d="M 206 83 L 290.441406 83 L 290.441406 184.164062 L 206 184.164062 Z M 206 83 "/>
</clipPath>
<clipPath id="clip5">
  <path d="M 0.441406 0 L 84 0 L 84 126 L 0.441406 126 Z M 0.441406 0 "/>
</clipPath>
<clipPath id="clip6">
  <path d="M 0.441406 0 L 85 0 L 85 126 L 0.441406 126 Z M 0.441406 0 "/>
</clipPath>
<clipPath id="clip7">
  <path d="M 207 0 L 290.441406 0 L 290.441406 126 L 207 126 Z M 207 0 "/>
</clipPath>
<clipPath id="clip8">
  <path d="M 206 0 L 290.441406 0 L 290.441406 126 L 206 126 Z M 206 0 "/>
</clipPath>
<clipPath id="clip9">
  <path d="M 0.441406 125 L 233 125 L 233 184 L 0.441406 184 Z M 0.441406 125 "/>
</clipPath>
<clipPath id="clip10">
  <path d="M 0.441406 124 L 233 124 L 233 184.164062 L 0.441406 184.164062 Z M 0.441406 124 "/>
</clipPath>
<clipPath id="clip11">
  <path d="M 57 0 L 146 0 L 146 184.164062 L 57 184.164062 Z M 57 0 "/>
</clipPath>
<clipPath id="clip12">
  <path d="M 0.441406 0 L 74 0 L 74 184 L 0.441406 184 Z M 0.441406 0 "/>
</clipPath>
<clipPath id="clip13">
  <path d="M 0.441406 0 L 74 0 L 74 184.164062 L 0.441406 184.164062 Z M 0.441406 0 "/>
</clipPath>
<clipPath id="clip14">
  <path d="M 217 0 L 290.441406 0 L 290.441406 184 L 217 184 Z M 217 0 "/>
</clipPath>
<clipPath id="clip15">
  <path d="M 217 0 L 290.441406 0 L 290.441406 184.164062 L 217 184.164062 Z M 217 0 "/>
</clipPath>
<clipPath id="clip16">
  <path d="M 145 0 L 233 0 L 233 184.164062 L 145 184.164062 Z M 145 0 "/>
</clipPath>
<clipPath id="clip17">
  <path d="M 57 32 L 233 32 L 233 184.164062 L 57 184.164062 Z M 57 32 "/>
</clipPath>
</defs>
<g id="surface1">
<g clip-path="url(#clip1)" clip-rule="nonzero">
<path style=" stroke:none;fill-rule:nonzero;fill:rgb(49.108887%,82.447815%,96.165466%);fill-opacity:1;" d="M 83.640625 83.835938 L 0.855469 125.3125 L 232.515625 183.75 "/>
</g>
<g clip-path="url(#clip2)" clip-rule="nonzero">
<path style="fill:none;stroke-width:8.34387;stroke-linecap:round;stroke-linejoin:round;stroke:rgb(13.729858%,12.159729%,12.548828%);stroke-opacity:1;stroke-miterlimit:10;" d="M 836.120394 1008.273289 L 4.153727 591.445937 " transform="matrix(0.0995054,0,0,-0.0995054,0.442151,184.164551)"/>
</g>
<path style=" stroke:none;fill-rule:nonzero;fill:rgb(49.108887%,82.447815%,96.165466%);fill-opacity:1;" d="M 207.242188 83.835938 L 83.640625 83.835938 L 232.515625 183.75 "/>
<path style="fill:none;stroke-width:8.34387;stroke-linecap:round;stroke-linejoin:round;stroke:rgb(13.729858%,12.159729%,12.548828%);stroke-opacity:1;stroke-miterlimit:10;" d="M 2078.280034 1008.273289 L 836.120394 1008.273289 " transform="matrix(0.0995054,0,0,-0.0995054,0.442151,184.164551)"/>
<g clip-path="url(#clip3)" clip-rule="nonzero">
<path style=" stroke:none;fill-rule:nonzero;fill:rgb(49.108887%,82.447815%,96.165466%);fill-opacity:1;" d="M 232.515625 183.75 L 290.027344 125.3125 L 207.242188 83.835938 "/>
</g>
<g clip-path="url(#clip4)" clip-rule="nonzero">
<path style="fill:none;stroke-width:8.34387;stroke-linecap:round;stroke-linejoin:round;stroke:rgb(13.729858%,12.159729%,12.548828%);stroke-opacity:1;stroke-miterlimit:10;" d="M 2332.270707 4.166112 L 2910.246701 591.445937 L 2078.280034 1008.273289 " transform="matrix(0.0995054,0,0,-0.0995054,0.442151,184.164551)"/>
</g>
<g clip-path="url(#clip5)" clip-rule="nonzero">
<path style=" stroke:none;fill-rule:nonzero;fill:rgb(91.571045%,59.350586%,35.694885%);fill-opacity:1;" d="M 83.640625 83.835938 L 73.445312 0.414062 L 0.855469 125.3125 L 83.640625 83.835938 "/>
</g>
<g clip-path="url(#clip6)" clip-rule="nonzero">
<path style="fill:none;stroke-width:8.34387;stroke-linecap:round;stroke-linejoin:round;stroke:rgb(13.729858%,12.159729%,12.548828%);stroke-opacity:1;stroke-miterlimit:10;" d="M 836.120394 1008.273289 L 733.660478 1846.638793 L 4.153727 591.445937 Z M 836.120394 1008.273289 " transform="matrix(0.0995054,0,0,-0.0995054,0.442151,184.164551)"/>
</g>
<path style="fill-rule:nonzero;fill:rgb(64.537048%,30.577087%,38.3255%);fill-opacity:1;stroke-width:8.34387;stroke-linecap:round;stroke-linejoin:round;stroke:rgb(13.729858%,12.159729%,12.548828%);stroke-opacity:1;stroke-miterlimit:10;" d="M 836.120394 1008.273289 L 733.660478 1846.638793 L 2180.73995 1846.638793 " transform="matrix(0.0995054,0,0,-0.0995054,0.442151,184.164551)"/>
<path style="fill-rule:nonzero;fill:rgb(64.537048%,30.577087%,38.3255%);fill-opacity:1;stroke-width:8.34387;stroke-linecap:round;stroke-linejoin:round;stroke:rgb(13.729858%,12.159729%,12.548828%);stroke-opacity:1;stroke-miterlimit:10;" d="M 2180.73995 1846.638793 L 2078.280034 1008.273289 L 836.120394 1008.273289 " transform="matrix(0.0995054,0,0,-0.0995054,0.442151,184.164551)"/>
<g clip-path="url(#clip7)" clip-rule="nonzero">
<path style=" stroke:none;fill-rule:nonzero;fill:rgb(22.541809%,17.373657%,41.204834%);fill-opacity:1;" d="M 290.027344 125.3125 L 217.4375 0.414062 L 207.242188 83.835938 L 290.027344 125.3125 "/>
</g>
<g clip-path="url(#clip8)" clip-rule="nonzero">
<path style="fill:none;stroke-width:8.34387;stroke-linecap:round;stroke-linejoin:round;stroke:rgb(13.729858%,12.159729%,12.548828%);stroke-opacity:1;stroke-miterlimit:10;" d="M 2910.246701 591.445937 L 2180.73995 1846.638793 L 2078.280034 1008.273289 Z M 2910.246701 591.445937 " transform="matrix(0.0995054,0,0,-0.0995054,0.442151,184.164551)"/>
</g>
<path style=" stroke:none;fill-rule:nonzero;fill:rgb(30.865479%,76.412964%,94.311523%);fill-opacity:1;" d="M 145.445312 33.152344 L 217.4375 0.414062 L 73.445312 0.414062 L 145.445312 33.152344 "/>
<path style="fill:none;stroke-width:8.34387;stroke-linecap:round;stroke-linejoin:round;stroke:rgb(13.729858%,12.159729%,12.548828%);stroke-opacity:1;stroke-miterlimit:10;" d="M 1457.239471 1517.628618 L 2180.73995 1846.638793 L 733.660478 1846.638793 Z M 1457.239471 1517.628618 " transform="matrix(0.0995054,0,0,-0.0995054,0.442151,184.164551)"/>
<g clip-path="url(#clip9)" clip-rule="nonzero">
<path style=" stroke:none;fill-rule:nonzero;fill:rgb(49.108887%,82.447815%,96.165466%);fill-opacity:1;" d="M 0.855469 125.3125 L 58.367188 183.75 L 232.515625 183.75 "/>
</g>
<g clip-path="url(#clip10)" clip-rule="nonzero">
<path style="fill:none;stroke-width:8.34387;stroke-linecap:round;stroke-linejoin:round;stroke:rgb(13.729858%,12.159729%,12.548828%);stroke-opacity:1;stroke-miterlimit:10;" d="M 4.153727 591.445937 L 582.129721 4.166112 L 2332.270707 4.166112 " transform="matrix(0.0995054,0,0,-0.0995054,0.442151,184.164551)"/>
</g>
<path style=" stroke:none;fill-rule:nonzero;fill:rgb(20.361328%,42.726135%,74.633789%);fill-opacity:1;" d="M 58.367188 183.75 L 145.445312 33.152344 L 73.445312 0.414062 "/>
<g clip-path="url(#clip11)" clip-rule="nonzero">
<path style="fill:none;stroke-width:8.34387;stroke-linecap:round;stroke-linejoin:round;stroke:rgb(13.729858%,12.159729%,12.548828%);stroke-opacity:1;stroke-miterlimit:10;" d="M 582.129721 4.166112 L 1457.239471 1517.628618 L 733.660478 1846.638793 " transform="matrix(0.0995054,0,0,-0.0995054,0.442151,184.164551)"/>
</g>
<g clip-path="url(#clip12)" clip-rule="nonzero">
<path style=" stroke:none;fill-rule:nonzero;fill:rgb(20.361328%,42.726135%,74.633789%);fill-opacity:1;" d="M 73.445312 0.414062 L 0.855469 125.3125 L 58.367188 183.75 "/>
</g>
<g clip-path="url(#clip13)" clip-rule="nonzero">
<path style="fill:none;stroke-width:8.34387;stroke-linecap:round;stroke-linejoin:round;stroke:rgb(13.729858%,12.159729%,12.548828%);stroke-opacity:1;stroke-miterlimit:10;" d="M 733.660478 1846.638793 L 4.153727 591.445937 L 582.129721 4.166112 " transform="matrix(0.0995054,0,0,-0.0995054,0.442151,184.164551)"/>
</g>
<g clip-path="url(#clip14)" clip-rule="nonzero">
<path style=" stroke:none;fill-rule:nonzero;fill:rgb(92.318726%,92.617798%,79.040527%);fill-opacity:1;" d="M 217.4375 0.414062 L 290.027344 125.3125 L 232.515625 183.75 "/>
</g>
<g clip-path="url(#clip15)" clip-rule="nonzero">
<path style="fill:none;stroke-width:8.34387;stroke-linecap:round;stroke-linejoin:round;stroke:rgb(13.729858%,12.159729%,12.548828%);stroke-opacity:1;stroke-miterlimit:10;" d="M 2180.73995 1846.638793 L 2910.246701 591.445937 L 2332.270707 4.166112 " transform="matrix(0.0995054,0,0,-0.0995054,0.442151,184.164551)"/>
</g>
<path style=" stroke:none;fill-rule:nonzero;fill:rgb(92.318726%,92.617798%,79.040527%);fill-opacity:1;" d="M 232.515625 183.75 L 145.445312 33.152344 L 217.4375 0.414062 "/>
<g clip-path="url(#clip16)" clip-rule="nonzero">
<path style="fill:none;stroke-width:8.34387;stroke-linecap:round;stroke-linejoin:round;stroke:rgb(13.729858%,12.159729%,12.548828%);stroke-opacity:1;stroke-miterlimit:10;" d="M 2332.270707 4.166112 L 1457.239471 1517.628618 L 2180.73995 1846.638793 " transform="matrix(0.0995054,0,0,-0.0995054,0.442151,184.164551)"/>
</g>
<path style=" stroke:none;fill-rule:nonzero;fill:rgb(71.102905%,60.955811%,76.924133%);fill-opacity:1;" d="M 58.367188 183.75 L 232.515625 183.75 L 145.445312 33.152344 L 58.367188 183.75 "/>
<g clip-path="url(#clip17)" clip-rule="nonzero">
<path style="fill:none;stroke-width:8.34387;stroke-linecap:round;stroke-linejoin:round;stroke:rgb(13.729858%,12.159729%,12.548828%);stroke-opacity:1;stroke-miterlimit:10;" d="M 582.129721 4.166112 L 2332.270707 4.166112 L 1457.239471 1517.628618 Z M 582.129721 4.166112 " transform="matrix(0.0995054,0,0,-0.0995054,0.442151,184.164551)"/>
</g>
</g>
</svg>

<svg xmlns="http://www.w3.org/2000/svg" width="388.587" height="246.773" viewBox="0 0 291.44 185.08" version="1.2"><defs><clipPath id="a"><path d="M.441 83H233v101H.441Zm0 0"/></clipPath><clipPath id="b"><path d="M.441 83H85v43H.441Zm0 0"/></clipPath><clipPath id="c"><path d="M207 83h83.441v101H207Zm0 0"/></clipPath><clipPath id="d"><path d="M206 83h84.441v101.164H206Zm0 0"/></clipPath><clipPath id="e"><path d="M.441 0H84v126H.441Zm0 0"/></clipPath><clipPath id="f"><path d="M.441 0H85v126H.441Zm0 0"/></clipPath><clipPath id="g"><path d="M207 0h83.441v126H207Zm0 0"/></clipPath><clipPath id="h"><path d="M206 0h84.441v126H206Zm0 0"/></clipPath><clipPath id="i"><path d="M.441 125H233v59H.441Zm0 0"/></clipPath><clipPath id="j"><path d="M.441 124H233v60.164H.441Zm0 0"/></clipPath><clipPath id="k"><path d="M57 0h89v184.164H57Zm0 0"/></clipPath><clipPath id="l"><path d="M.441 0H74v184H.441Zm0 0"/></clipPath><clipPath id="m"><path d="M.441 0H74v184.164H.441Zm0 0"/></clipPath><clipPath id="n"><path d="M217 0h73.441v184H217Zm0 0"/></clipPath><clipPath id="o"><path d="M217 0h73.441v184.164H217Zm0 0"/></clipPath><clipPath id="p"><path d="M145 0h88v184.164h-88Zm0 0"/></clipPath><clipPath id="q"><path d="M57 32h176v152.164H57Zm0 0"/></clipPath></defs><g clip-path="url(#a)"><path style="stroke:none;fill-rule:nonzero;fill:#7dd2f5;fill-opacity:1" d="M83.64 83.836.856 125.313l231.66 58.437"/></g><g clip-path="url(#b)"><path style="fill:none;stroke-width:8.34387;stroke-linecap:round;stroke-linejoin:round;stroke:#231f20;stroke-opacity:1;stroke-miterlimit:10" d="M836.12 1008.273 4.154 591.446" transform="matrix(.0995 0 0 -.0995 .442 184.165)"/></g><path style="stroke:none;fill-rule:nonzero;fill:#7dd2f5;fill-opacity:1" d="M207.242 83.836H83.641l148.875 99.914"/><path style="fill:none;stroke-width:8.34387;stroke-linecap:round;stroke-linejoin:round;stroke:#231f20;stroke-opacity:1;stroke-miterlimit:10" d="M2078.28 1008.273H836.12" transform="matrix(.0995 0 0 -.0995 .442 184.165)"/><g clip-path="url(#c)"><path style="stroke:none;fill-rule:nonzero;fill:#7dd2f5;fill-opacity:1" d="m232.516 183.75 57.511-58.438-82.785-41.476"/></g><g clip-path="url(#d)"><path style="fill:none;stroke-width:8.34387;stroke-linecap:round;stroke-linejoin:round;stroke:#231f20;stroke-opacity:1;stroke-miterlimit:10" d="m2332.27 4.166 577.977 587.28-831.967 416.827" transform="matrix(.0995 0 0 -.0995 .442 184.165)"/></g><g clip-path="url(#e)"><path style="stroke:none;fill-rule:nonzero;fill:#ea975b;fill-opacity:1" d="M83.64 83.836 73.446.414.855 125.312l82.786-41.476"/></g><g clip-path="url(#f)"><path style="fill:none;stroke-width:8.34387;stroke-linecap:round;stroke-linejoin:round;stroke:#231f20;stroke-opacity:1;stroke-miterlimit:10" d="M836.12 1008.273 733.66 1846.64 4.154 591.446Zm0 0" transform="matrix(.0995 0 0 -.0995 .442 184.165)"/></g><path style="fill-rule:nonzero;fill:#a54e62;fill-opacity:1;stroke-width:8.34387;stroke-linecap:round;stroke-linejoin:round;stroke:#231f20;stroke-opacity:1;stroke-miterlimit:10" d="M836.12 1008.273 733.66 1846.64h1447.08M2180.74 1846.639l-102.46-838.366H836.12" transform="matrix(.0995 0 0 -.0995 .442 184.165)"/><g clip-path="url(#g)"><path style="stroke:none;fill-rule:nonzero;fill:#392c69;fill-opacity:1" d="M290.027 125.313 217.437.413l-10.195 83.422 82.785 41.477"/></g><g clip-path="url(#h)"><path style="fill:none;stroke-width:8.34387;stroke-linecap:round;stroke-linejoin:round;stroke:#231f20;stroke-opacity:1;stroke-miterlimit:10" d="M2910.247 591.446 2180.74 1846.639l-102.46-838.366Zm0 0" transform="matrix(.0995 0 0 -.0995 .442 184.165)"/></g><path style="stroke:none;fill-rule:nonzero;fill:#4fc3f0;fill-opacity:1" d="M145.445 33.152 217.438.414H73.445l72 32.738"/><path style="fill:none;stroke-width:8.34387;stroke-linecap:round;stroke-linejoin:round;stroke:#231f20;stroke-opacity:1;stroke-miterlimit:10" d="m1457.24 1517.629 723.5 329.01H733.66Zm0 0" transform="matrix(.0995 0 0 -.0995 .442 184.165)"/><g clip-path="url(#i)"><path style="stroke:none;fill-rule:nonzero;fill:#7dd2f5;fill-opacity:1" d="m.855 125.313 57.512 58.437h174.149"/></g><g clip-path="url(#j)"><path style="fill:none;stroke-width:8.34387;stroke-linecap:round;stroke-linejoin:round;stroke:#231f20;stroke-opacity:1;stroke-miterlimit:10" d="M4.154 591.446 582.13 4.166h1750.14" transform="matrix(.0995 0 0 -.0995 .442 184.165)"/></g><path style="stroke:none;fill-rule:nonzero;fill:#346dbe;fill-opacity:1" d="m58.367 183.75 87.078-150.598-72-32.738"/><g clip-path="url(#k)"><path style="fill:none;stroke-width:8.34387;stroke-linecap:round;stroke-linejoin:round;stroke:#231f20;stroke-opacity:1;stroke-miterlimit:10" d="m582.13 4.166 875.11 1513.463-723.58 329.01" transform="matrix(.0995 0 0 -.0995 .442 184.165)"/></g><g clip-path="url(#l)"><path style="stroke:none;fill-rule:nonzero;fill:#346dbe;fill-opacity:1" d="M73.445.414.855 125.312l57.512 58.438"/></g><g clip-path="url(#m)"><path style="fill:none;stroke-width:8.34387;stroke-linecap:round;stroke-linejoin:round;stroke:#231f20;stroke-opacity:1;stroke-miterlimit:10" d="M733.66 1846.639 4.154 591.446 582.13 4.166" transform="matrix(.0995 0 0 -.0995 .442 184.165)"/></g><g clip-path="url(#n)"><path style="stroke:none;fill-rule:nonzero;fill:#ebecca;fill-opacity:1" d="m217.438.414 72.59 124.898-57.512 58.438"/></g><g clip-path="url(#o)"><path style="fill:none;stroke-width:8.34387;stroke-linecap:round;stroke-linejoin:round;stroke:#231f20;stroke-opacity:1;stroke-miterlimit:10" d="m2180.74 1846.639 729.507-1255.193L2332.27 4.166" transform="matrix(.0995 0 0 -.0995 .442 184.165)"/></g><path style="stroke:none;fill-rule:nonzero;fill:#ebecca;fill-opacity:1" d="m232.516 183.75-87.07-150.598L217.437.414"/><g clip-path="url(#p)"><path style="fill:none;stroke-width:8.34387;stroke-linecap:round;stroke-linejoin:round;stroke:#231f20;stroke-opacity:1;stroke-miterlimit:10" d="M2332.27 4.166 1457.24 1517.63l723.5 329.01" transform="matrix(.0995 0 0 -.0995 .442 184.165)"/></g><path style="stroke:none;fill-rule:nonzero;fill:#b59bc4;fill-opacity:1" d="M58.367 183.75h174.149l-87.07-150.598L58.366 183.75"/><g clip-path="url(#q)"><path style="fill:none;stroke-width:8.34387;stroke-linecap:round;stroke-linejoin:round;stroke:#231f20;stroke-opacity:1;stroke-miterlimit:10" d="M582.13 4.166h1750.14L1457.24 1517.63Zm0 0" transform="matrix(.0995 0 0 -.0995 .442 184.165)"/></g></svg>
